**kern	**text
*clefG2	*
*k[f#c#g#d#]	*
*M4/4	*
*MM182	*
=1	=1
1r	.
=2	=2
2r	.
4r	.
12c#L	ま
12c#J	a t
12r	.
=3	=3
1r	.
=4	=4
1r	.
=5	=5
1r	.
=6	=6
1r	.
=7	=7
1r	.
=8	=8
1r	.
=9	=9
1r	.
=10	=10
2r	.
4r	.
8r	.
*clefF4	*
8C#	お
=11	=11
8F#L	と
8G#	な
8G#	に
[8G#J	な
8G#L]	.
8C#	る
8C#	ほ
8BBJ	ど
=12	=12
8BBL	で
8C#	で
8C#'	d
8C#J	\!で
4r	.
8r	.
8C#	は
=13	=13
8D#L	み
8D#	だ
8D#	し
[8D#J	も
8D#L]	.
8C#	の
8BB	で
8GG#J	す
=14	=14
8BBL	が
8C#	ら
8C#'	んn
8C#J	\!ど
4C#'	う
8r	.
8C#	じ
=15	=15
8F#L	ん・
8G#	せ
8G#	い
[8G#J	ろ
8G#L]	.
8C#	んn
8C#	じゃ
8BBJ	が
=16	=16
8BBL	か
8C#	た
8C#'	a t
8C#J	\!た
4r	.
8r	.
8BB	しょ
=17	=17
4C#	お・
4E	じょ
4D#	わ
8BBL	と
8GG#J	り
=18	=18
8BBL	に
8C#	な
8C#'	a t
8C#J	\!て
4r	.
8r	.
8C#	き
=19	=19
8F#L	れ
8G#	い
8G#	ご
[8G#J	と
8G#L]	.
8C#	だ
8C#	け
8BBJ	で
=20	=20
8BBL	ぱ
8C#	ぱ
8C#'	a p
8C#J	\!ぱ
4r	.
8r	.
8C#	ぼ
=21	=21
8D#L	ろ
8D#	ぼ
8D#	ろ
[8D#J	の
8D#L]	.
8C#	く
8BB	つ
8GG#J	お
=22	=22
8BBL	む
8C#	す
8C#'	んn
8C#J	\!で
4r	.
8r	.
8C#	で
=23	=23
8F#L	じ
8G#	た
8G#	る
[8G#J	し
8G#L]	.
8C#	んn
8C#	じゃ
8BBJ	が
=24	=24
8BBL	た
8C#	た
8C#'	a t
8C#J	\!た
4r	.
8r	.
8BB	しょ
=25	=25
4C#	お・
8EL	ね
8EJ	ん
4D#	わ
8BBL	か
8GG#J	ぜ
=26	=26
8BBL	に
8C#	な
8C#'	a t
8C#J	\!て
2r	.
=27	=27
8C#	ゆ
4C#	ら
8BB	り
8C#	く
4C#	ら
8BB	り
=28	=28
8GG#L	だ
8GG#J	い
8.BBL	お・
16BBJk	う
8.C#L	じょ
16C#Jk	う
8r	.
8C#	お
=29	=29
8C#'L	o ts
8C#	\!つ
8E	か
8EJ	れ
8D#L	さ
8BB	ま
8BB	で
8GG#J	す
=30	=30
8BBL	ご
8C#	り
8C#'	んn
[8C#J	\!じゅ
16C#]	.
16r	.
8r	.
8r	.
*clefG2	*
8G#	て
=31	=31
4c#	れ
8.c#L	きゃ
16c#Jk	s
8.BL	\!た
*clefF4	*
[16G#Jk	び
8G#L]	.
8F#J	ぼ
=32	=32
8F#'L	い
8F#	\!ぼ
8F#	く
8EJ	に
8F#L	あ・
16F#L	い
[16G#JJ	じょ
16G#LL]	.
16G#J	う
8EJ	お・
=33	=33
8r	.
8C#	う
8EL	そ
16C#L	で
[16EJJ	か
8EL]	.
8C#	た
8E	め
8C#J	た
=34	=34
8F#L	うぉ
16F#L	う
[16G#JJ	あ・
16G#LL]	.
16G#J	い
[8G#J	に
8G#]	.
8r	.
8r	.
*clefG2	*
8G#	う
=35	=35
12c#L	ざ
12c#J	a t
12r	.
16c#KL	\!た
8c#	い
16c#Jk	んn
*clefF4	*
8.BL	だ
[16G#Jk	じ
8G#L]	.
8F#J	が
=36	=36
8F#'L	a r
8F#	\!み2
8F#	わ
8EJ	く
8F#L	は
16F#L	い
[16G#JJ	て
16G#LL]	.
16G#J	ん
8EJ	しょ
=37	=37
8E'L	んng
8C#	\!か
8E	に
8C#J	ば
8EL	り
8C#	ず
8E	む
8C#J	お・
=38	=38
4.G#	ど
8A	れ
4G#	ば
8r	.
8G#	ひ
=39	=39
8BL	と
*clefG2	*
8c#	つ
8c#	f
8G#J	ふ
8BL	た
8c#J	つ
8r	.
[8c#	あ
=40	=40
8c#L]	.
8c#	や
*clefF4	*
8B	め
8G#J	た
8F#L	て
8EJ	で
8r	.
[8F#	\!な
=41	=41
8F#L]	.
8E	に
8F#	お
8EJ	え・
8F#L	が
8E	い
8F#	て
8EJ	い
=42	=42
[4G#	る
16G#LL]	.
16G#J	んn
8BJ	だ
8.G#L	ろ
16G#Jk	う
8r	.
8G#	て
=43	=43
4c#	れ
8.c#L	きゃ
16c#Jk	s
8.BL	た
[16G#Jk	び
8G#L]	.
8F#J	ぼ
=44	=44
8F#'L	い
8F#	\!ぼ
8F#	く
8EJ	に
8F#L	あ・
16F#L	い
[16G#JJ	じょ
16G#LL]	.
16G#J	う
8EJ	お・
=45	=45
8r	.
8C#L	\!だ
8E	れ
8C#J	か
8EL	こ
8C#	た
8E	え・
8C#J	て
=46	=46
8G#L	く
8C#	れ
8C#	な
8BBJ	い
2C#	か
=47	=47
1r	.
=48	=48
1r	.
=49	=49
1r	.
=50	=50
1r	.
=51	=51
1r	.
=52	=52
1r	.
=53	=53
1r	.
=54	=54
2r	.
4r	.
8r	.
8C#	み
=55	=55
8F#L	た
8G#	め
8G#	が
[8G#J	ど
8G#L]	.
8C#	う
8C#	や
8BBJ	ら
=56	=56
8BBL	で
8C#	で
8C#'	d
8C#J	\!で
4r	.
8r	.
8C#	す
=57	=57
8D#L	て
8D#	れ
8D#	お
[8D#J	ば
8D#L]	.
8C#	い
8BB	あ・
8GG#J	す
=58	=58
8BBL	さ
8C#	でぃ
8C#'	s
8C#J	\!てぃ
8C#'L	i k
8C#'J	\!k
8r	.
8C#	ど
=59	=59
8F#L	く
8G#	ば
8G#	り
8G#J	も
8G#'L	o t
8C#	\!た
8C#	よ
8BBJ	に
=60	=60
8BBL	う・
8C#	た
8C#'	a t
8C#J	\!た
4r	.
8r	.
8BB	しょ
=61	=61
4C#	お・
4E	じょ
4D#	わ
8BBL	は
8GG#J	な
=62	=62
8BBL	に
8C#	な
8C#'	a t
8C#J	\!て
4r	.
8r	.
8C#	み
=63	=63
8F#L	み
8G#	お
8G#	ふ
[8G#J	さ
8G#L]	.
8C#	い
8C#	で
8BBJ	も
=64	=64
8BBL	ぱ
8C#	ぱ
8C#'	a p
8C#J	\!ぱ
4r	.
8r	.
8C#	や
=65	=65
8D#L	つ
8D#	ら
8D#	の
8D#J	こ
8D#L	え
8C#	わ
8BB	は
8GG#J	で
=66	=66
8BBL	に
8C#	な
8C#'	a t
8C#J	\!て
4r	.
8r	.
8C#	む
=67	=67
8F#L	ね
8G#	に
8G#	さ
8G#J	さ
8G#'L	a t
8C#	\!た
8C#	あ・
8BBJ	の
=68	=68
8BBL	こ
8C#	と
8C#'	b
8C#J	\!ば
4r	.
8r	.
8BB	しょ
=69	=69
4C#	お・
8EL	ね
8EJ	ん
4D#	わ
8BBL	ふ
8GG#J	り
=70	=70
8BBL	か
8C#	え・
8C#'	e t
8C#J	\!て
2r	.
=71	=71
8C#	ゆ
4C#	ら
8BB	り
8C#	く
4C#	ら
8BB	り
=72	=72
8GG#L	だ
8GG#J	い
8.BBL	も
16BBJk	う
8.C#L	そ
16C#Jk	う
8r	.
8C#	お
=73	=73
8C#'L	o t
8C#	\!た
8E	が
8EJ	い
8D#L	さ
8BB	ま
8BB	で
8GG#J	す
=74	=74
8BBL	ご
8C#	り
8C#'	んn
[8C#J	\!じゅ
16C#]	.
16r	.
8r	.
8r	.
*clefG2	*
8G#	て
=75	=75
4c#	れ
8.c#L	きゃ
16c#Jk	s
8.BL	た
*clefF4	*
[16G#Jk	び
8G#L]	.
8F#J	ぼ
=76	=76
8F#'L	い
8F#	\!ぼ
8F#	く
8EJ	に
8F#L	か
16F#L	んn
[16G#JJ	じょ
16G#LL]	.
16G#J	う
8EJ	お・
=77	=77
8r	.
8C#	\!の
8EL	い・
16C#L	ず
[16EJJ	ま
8EL]	.
8C#	じ
8E	り
8C#J	の
=78	=78
8F#L	うぉ
16F#L	う
[16G#JJ	あ・
16G#LL]	.
16G#J	い
[8G#J	に
8G#]	.
8r	.
8r	.
*clefG2	*
8G#	じ
=79	=79
12c#L	れ
12c#J	e t
12r	.
16c#KL	\!た
8c#	い
16c#Jk	んn
*clefF4	*
8.BL	だ
[16G#Jk	じ
8G#L]	.
8F#J	が
=80	=80
8F#'L	a r
8F#	\!ゆ
8F#	だ
8EJ	んngy
8F#L	き
16F#L	んm
[16G#JJ	も
16G#LL]	.
16G#J	ts
8EJ	さ
=81	=81
8r	.
8C#L	\!ほ
8E	ほ
8C#J	に
8EL	と
8C#	け
8E	た
8C#J	な
=82	=82
4.G#	み
8A	だ
4G#	お・
8r	.
8G#	わ
=83	=83
8BL	す
*clefG2	*
8c#	れ
8c#'	e t
8G#J	\!た
8BL	く
8c#J	て
8r	.
[8c#	\!の
=84	=84
8c#L]	.
8c#	ど
*clefF4	*
8B	お
8G#J	し
8F#L	め
8EJ	た
8r	.
[8F#	\!か
=85	=85
8F#L]	.
8E	こ
8F#	に
8EJ	の
8F#L	こ
8E	し
8F#	た
8EJ	き
=86	=86
4.G#	ず
8B	あ・
4G#	と
8r	.
8G#	て
=87	=87
4c#	れ
8.c#L	きゃ
16c#Jk	s
8.BL	た
[16G#Jk	び
8G#L]	.
8F#J	ぼ
=88	=88
8F#'L	い
8F#	\!ぼ
8F#	く
8EJ	に
8F#L	か
16F#L	んn
[16G#JJ	じょ
16G#LL]	.
16G#J	う
8EJ	お・
=89	=89
8r	.
8C#L	い
8E	ま
8C#J	だ
8EL	け
8C#	だ
8E	い
8F#J	て
=90	=90
8G#L	く
8C#	れ
8C#	な
8BBJ	い
2C#	か
=91	=91
1r	.
=92	=92
1r	.
=93	=93
1r	.
=94	=94
1r	.
=95	=95
1r	.
=96	=96
1r	.
=97	=97
1r	.
=98	=98
2r	.
4r	.
8r	.
8E#X	こ
=99	=99
8A#XL	んn
8A#J	な
4A#	せ
16G#KL	か
8G#	い
[16E#XJk	じゃ
8E#L]	.
8D#J	も
=100	=100
8D#'L	う
8D#	い
8D#	き
8C#J	が
8D#L	で
16D#L	ky
[16E#XJJ	な
16E#LL]	.
16E#J	k
8C#J	て
=101	=101
8r	.
8AA#X	\!さ
8C#L	よ
16AA#L	な
[16C#JJ	ら
8C#L]	.
8AA#	つ
8C#	げ
8AA#J	た
=102	=102
8D#L	げ
16D#L	んn
[16E#XJJ	じ
16E#LL]	.
16E#J	ts
[8E#J	に
8E#]	.
8r	.
8r	.
8E#	ゆ
=103	=103
8A#XL	る
8A#'J	sh
8.A#L	\!て
16A#Jk	あ
48G#LLL	く
[48G#JJ	れ
12G#_	.
16G#L]	.
[16E#XJJ	な
16E#LL]	.
16E#J	い
8D#J	か
=104	=104
8r	.
8D#L	\!よ
8D#	わ
8C#J	い
8D#L	ぼ
16D#L	k
[16E#XJJ	た
16E#LL]	.
16E#J	ch
8C#J	\!- お
=105	=105
8r	.
8AA#XL	\!ま
8C#	た
8AA#J	ど
8C#L	こ
8AA#	か
8C#	で
8AA#J	あ・
=106	=106
4.E#X	い
8F#	ま
2E#	しょ
=107	=107
2r	.
4r	.
8r	.
*clefG2	*
8G#	て
=108	=108
4c#	れ
8.c#L	きゃ
16c#Jk	s
8.BL	\!た
*clefF4	*
[16G#Jk	び
8G#L]	.
8F#J	ぼ
=109	=109
8F#'L	い
8F#	\!ぼ
8F#	く
8EJ	に
8F#L	あ・
16F#L	い
[16G#JJ	じょ
16G#LL]	.
16G#J	う
8EJ	お・
=110	=110
8r	.
8C#	う
8EL	そ
16C#L	で
[16EJJ	か
8EL]	.
8C#	た
8E	め
8C#J	た
=111	=111
8F#L	うぉ
16F#L	う
[16G#JJ	あ・
16G#LL]	.
16G#J	い
[8G#J	に
8G#]	.
8r	.
8r	.
*clefG2	*
8G#	う
=112	=112
12c#L	ざ
12c#J	a t
12r	.
16c#KL	\!た
8c#	い
16c#Jk	んn
*clefF4	*
8.BL	だ
[16G#Jk	じ
8G#L]	.
8F#J	が
=113	=113
8F#'L	a r
8F#	\!み2
8F#	わ
8EJ	く
8F#L	は
16F#L	い
[16G#JJ	て
16G#LL]	.
16G#J	ん
8EJ	しょ
=114	=114
8E'L	んng
8C#	\!か
8E	に
8C#J	ば
8EL	り
8C#	ず
8E	む
8C#J	お・
=115	=115
4.G#	ど
8A	れ
4G#	ば
8r	.
8G#	ひ
=116	=116
8BL	と
*clefG2	*
8c#	つ
8c#	f
8G#J	ふ
8BL	た
8c#J	つ
8r	.
[8c#	あ
=117	=117
8c#L]	.
8c#	や
*clefF4	*
8B	め
8G#J	た
8F#L	て
8EJ	で
8r	.
[8F#	\!な
=118	=118
8F#L]	.
8E	に
8F#	お
8EJ	え・
8F#L	が
8E	い
8F#	て
8EJ	い
=119	=119
[4G#	る
16G#LL]	.
16G#J	んn
8BJ	だ
8.G#L	ろ
16G#Jk	う
8r	.
8G#	て
=120	=120
4c#	れ
8.c#L	きゃ
16c#Jk	s
8.BL	た
[16G#Jk	び
8G#L]	.
8F#J	ぼ
=121	=121
8F#'L	い
8F#	\!ぼ
8F#	く
8EJ	に
8F#L	あ・
16F#L	い
[16G#JJ	じょ
16G#LL]	.
16G#J	う
8EJ	お・
=122	=122
8r	.
8C#L	\!だ
8E	れ
8C#J	か
8EL	こ
8C#	た
8E	え・
8C#J	て
=123	=123
8G#L	く
8C#	れ
8C#	な
8BBJ	い
2C#'	か
=124	=124
8G#L	ぱ
8C#	る
8C#	ら
8BBJ	る
8C#L	ら
8C#'J	a t
4r	.
==	==
*-	*-
